src/main/resources/icons/PythonIcons/icons/com/jetbrains/python/anaconda.svg

<svg xmlns="http://www.w3.org/2000/svg" width="16" height="16" viewBox="0 0 16 16">
  <path fill="#62B543" fill-rule="evenodd" d="M4.24761618,13.9103327 L4.25340066,12.2532079 L6.25416706,12.3650681 C6.79391559,12.5811389 7.38307705,12.7 8,12.7 C10.5957383,12.7 12.7,10.5957383 12.7,8 C12.7,5.43112778 10.6390715,3.34361121 8.08043859,3.30067446 L8.13576719,3.09561754 L7.75952688,2.99410012 L8.71897669,1.93225597 L8.64044375,1.86129601 L8.64432692,1.85634363 L8.57350445,1.80081172 L8.27379119,1.53 L8.25485419,1.55095799 L7.5688487,1.01306098 C7.71145501,1.00439572 7.85521417,1 8,1 C11.8659932,1 15,4.13400675 15,8 C15,11.8659932 11.8659932,15 8,15 C6.61938719,15 5.33212661,14.6003116 4.24761618,13.9103327 Z M3.64910095,13.483933 C3.16278727,13.0975794 2.72904376,12.6479024 2.36033779,12.1473692 L3.65351408,12.219669 L3.64910095,13.483933 Z M1.69452156,11.0435847 C1.40071574,10.436017 1.1921365,9.77953585 1.08430851,9.08966601 L2.30577291,9.74460947 L1.69452156,11.0435847 Z M1.00462871,7.74304234 C1.03041704,7.02837112 1.16334231,6.34101608 1.38782546,5.69655629 L2.18043951,6.8077602 L1.00462871,7.74304234 Z M2.02462878,4.35185132 C2.31573555,3.87605962 2.66207371,3.43773112 3.0547253,3.04578378 L3.23431664,4.07479582 L2.02462878,4.35185132 Z M3.5809194,2.57092942 C3.60650368,2.55007946 3.63223813,2.52940674 3.65812087,2.50891313 L5.26056415,2.94128551 L5.02405328,3.66489141 L3.81997599,3.94066192 L3.5809194,2.57092942 Z M4.29554488,2.05944604 C4.75631012,1.7715107 5.25298884,1.53569282 5.77732755,1.3602459 L5.44722582,2.37019341 L4.29554488,2.05944604 Z M6.471612,1.16734973 C6.55619279,1.14851305 6.64135032,1.13120676 6.72705402,1.11546141 L7.85161595,1.9972306 L7.10938172,2.81867749 L6.02730437,2.52671061 L6.471612,1.16734973 Z M5.10095684,11.6996566 L4.25549793,11.6523881 L4.25831739,10.8446758 C4.50167325,11.164277 4.78504336,11.4517609 5.10095684,11.6996566 Z M3.65082049,9.78500789 L3.09109881,9.48488776 L3.38038558,8.87012209 C3.43978904,9.18747013 3.53108533,9.49358339 3.65082049,9.78500789 Z M3.33823251,7.39769564 L2.99954873,6.9228785 L3.5493245,6.48556711 C3.4499349,6.77774439 3.37850797,7.08285017 3.33823251,7.39769564 Z M4.25905678,5.15435337 L4.05950235,5.31308612 L3.92327501,4.53253866 L4.80658598,4.33023345 L4.70143448,4.65194487 C4.54244022,4.8086035 4.39455159,4.9765024 4.25905678,5.15435337 Z M2.12714461,11.5333947 L2.83528065,10.028529 L3.65961973,10.4705358 L3.65561135,11.6188493 L2.12714461,11.5333947 Z M1.11244927,8.42394519 L2.52933943,7.29689986 L3.08861785,8.08097928 L2.56159107,9.2009682 L1.11244927,8.42394519 Z M1.66367718,5.05005565 L3.33761567,4.66667256 L3.52468003,5.73850301 L2.6506488,6.43373884 L1.66367718,5.05005565 Z M5.70636666,3.50862078 L5.8406427,3.09780271 L6.60252257,3.30337368 L5.70636666,3.50862078 Z"/>
</svg>

<svg xmlns="http://www.w3.org/2000/svg" width="16" height="16" viewBox="0 0 16 16"><rect id="frame" width="16" height="16" fill="none"/><path fill="#62B543" fill-rule="evenodd" d="M4.248 13.91l.005-1.657 2.001.112A4.7 4.7 0 1 0 8.08 3.301l.056-.205-.376-.102.959-1.062-.079-.07.004-.006-.07-.055-.3-.271-.02.021-.685-.538A7 7 0 1 1 4.248 13.91zm-.599-.426a7.041 7.041 0 0 1-1.289-1.337l1.294.073-.005 1.264zm-1.954-2.44a6.95 6.95 0 0 1-.61-1.954l1.22.655-.61 1.299zm-.69-3.301a6.978 6.978 0 0 1 .383-2.046l.792 1.11-1.175.936zm1.02-3.391a7.03 7.03 0 0 1 1.03-1.306l.18 1.029-1.21.277zM3.58 2.57l.077-.062 1.603.432-.237.724-1.204.276-.24-1.37zm.715-.512c.46-.287.957-.523 1.481-.699l-.33 1.01-1.151-.31zm2.176-.892c.084-.018.17-.036.255-.052l1.125.882-.743.822-1.082-.292.445-1.36zM5.1 11.7l-.846-.048.003-.807c.244.32.527.607.843.855zm-1.45-1.915l-.56-.3.29-.615c.059.317.15.624.27.915zm-.313-2.387L3 6.923l.55-.437c-.1.292-.171.597-.212.912zm.921-2.244l-.2.16-.136-.781.884-.203-.106.322a4.727 4.727 0 0 0-.442.502zm-2.132 6.38l.708-1.505.825.442-.004 1.148-1.529-.086zm-1.015-3.11L2.53 7.297l.56.784-.527 1.12-1.45-.777zm.552-3.374l1.674-.383.187 1.072-.874.695-.987-1.384zM5.706 3.51l.135-.411.762.205-.897.206z"/></svg>
